X:16332
T:Tatter Jack Walsh
R:jig
D:Gerry O'Connor
Z:id:hn-jig-153
M:6/8
K:Dmix
~f3 ded|cAB c2A|dcA GFG|Add efg|
fef ded|cAB c2A|dcA GFG|1 Ad^c d2e:|2 Ad^c d2A||
|:dfa afd|dfa a2f|~g3 gag|e^cd efg|
fgf ded|cAB c2A|dcA GFG|1 Ad^c d2A:|2 Ad^c d2e||
